assets/icons/qvision/integration_instructions.svg

<svg xmlns="http://www.w3.org/2000/svg" enable-background="new 0 0 24 24" height="24" viewBox="0 0 24 24" width="24"><g><rect fill="none" height="24" width="24"/><circle cx="12" cy="3.5" fill="none" r=".75"/><circle cx="12" cy="3.5" fill="none" r=".75"/><circle cx="12" cy="3.5" fill="none" r=".75"/><path d="M19,3h-4.18C14.4,1.84,13.3,1,12,1S9.6,1.84,9.18,3H5C4.86,3,4.73,3.01,4.6,3.04C4.21,3.12,3.86,3.32,3.59,3.59 c-0.18,0.18-0.33,0.4-0.43,0.64C3.06,4.46,3,4.72,3,5v14c0,0.27,0.06,0.54,0.16,0.78c0.1,0.24,0.25,0.45,0.43,0.64 c0.27,0.27,0.62,0.47,1.01,0.55C4.73,20.99,4.86,21,5,21h14c1.1,0,2-0.9,2-2V5C21,3.9,20.1,3,19,3z M11,14.17l-1.41,1.42L6,12 l3.59-3.59L11,9.83L8.83,12L11,14.17z M12,4.25c-0.41,0-0.75-0.34-0.75-0.75S11.59,2.75,12,2.75s0.75,0.34,0.75,0.75 S12.41,4.25,12,4.25z M14.41,15.59L13,14.17L15.17,12L13,9.83l1.41-1.42L18,12L14.41,15.59z"/></g></svg>

<svg width="24" height="24" viewBox="0 0 24 24" fill="none" xmlns="http://www.w3.org/2000/svg">
<g clip-path="url(#clip0_147_4330)">
<path d="M19 3H14.82C14.4 1.84 13.3 1 12 1C10.7 1 9.6 1.84 9.18 3H5C4.86 3 4.73 3.01 4.6 3.04C4.21 3.12 3.86 3.32 3.59 3.59C3.41 3.77 3.26 3.99 3.16 4.23C3.06 4.46 3 4.72 3 5V19C3 19.27 3.06 19.54 3.16 19.78C3.26 20.02 3.41 20.23 3.59 20.42C3.86 20.69 4.21 20.89 4.6 20.97C4.73 20.99 4.86 21 5 21H19C20.1 21 21 20.1 21 19V5C21 3.9 20.1 3 19 3ZM11 14.17L9.59 15.59L6 12L9.59 8.41L11 9.83L8.83 12L11 14.17ZM12 4.25C11.59 4.25 11.25 3.91 11.25 3.5C11.25 3.09 11.59 2.75 12 2.75C12.41 2.75 12.75 3.09 12.75 3.5C12.75 3.91 12.41 4.25 12 4.25ZM14.41 15.59L13 14.17L15.17 12L13 9.83L14.41 8.41L18 12L14.41 15.59Z" fill="#323232"/>
</g>
<defs>
<clipPath id="clip0_147_4330">
<rect width="24" height="24" fill="white"/>
</clipPath>
</defs>
</svg>
